X:5696
T:Gan Ainm
R:Jig
S:(Sharon Shannon)
H:
N:
D:Waterboys-Room To Roam
Z:Adrian Scahill
M:6/8
L:1/8
K:A
c3 cBA|F2A E2A|F2A EFA|B3 BAB|c3 cBA|F2A E2e|ecA BcB|1A3 A2B:|2A3 Afg||\
a3 afe|f2a e3|c3 cBA|B3 Bfg|a3 afe|f2a e3|c3 BcB|A3 A3:||


